src/images/clients/boohoo.svg

<svg width="168" height="40" viewBox="0 0 168 40" fill="none" xmlns="http://www.w3.org/2000/svg">
<path d="M48.5506 13.5298H35.2738C31.8365 13.5914 29.0919 16.4181 29.1381 19.8604V33.0039C29.0816 36.4463 31.8314 39.2832 35.2738 39.3448H48.5506C51.993 39.2832 54.7376 36.4463 54.6863 33.0039V19.8502C54.7273 16.413 51.9878 13.5914 48.5506 13.5298ZM50.8027 21.6201V31.3571C50.8387 33.5836 49.0688 35.4151 46.8423 35.4561H36.977C34.7505 35.4151 32.9806 33.5785 33.0165 31.3571V21.6201C32.9806 19.3936 34.7505 17.5621 36.977 17.5211H46.8423C49.0636 17.5621 50.8387 19.3987 50.8027 21.6201Z" fill="black"/>
<path d="M76.7458 13.5298H63.4074C59.9702 13.5914 57.2256 16.4181 57.2718 19.8604V33.0039C57.2153 36.4463 59.9651 39.2832 63.4074 39.3448H76.7458C80.1882 39.2832 82.9328 36.4463 82.8815 33.0039V19.8502C82.9226 16.413 80.1831 13.5914 76.7458 13.5298ZM78.998 21.6201V31.3571C79.0339 33.5836 77.264 35.4151 75.0375 35.4561H65.1722C62.9611 35.3946 61.2066 33.5682 61.2425 31.3571V21.6201C61.2066 19.3936 62.9765 17.5621 65.203 17.5211H75.0683C77.2794 17.5827 79.0339 19.409 78.998 21.6201Z" fill="black"/>
<path d="M132.854 13.5298H119.526C116.089 13.5914 113.344 16.4181 113.39 19.8605V33.0039C113.344 36.4411 116.084 39.273 119.526 39.3346H132.854C136.291 39.273 139.036 36.4463 138.99 33.0039V19.8502C139.031 16.413 136.286 13.5914 132.854 13.5298ZM135.106 21.6201V31.3571C135.142 33.5836 133.372 35.4151 131.146 35.4562H121.281C119.054 35.4151 117.284 33.5785 117.32 31.3571V21.6201C117.284 19.3936 119.054 17.5621 121.281 17.5211H131.146C133.367 17.5621 135.142 19.3987 135.106 21.6201Z" fill="black"/>
<path d="M161.004 13.5298H147.675C144.238 13.5914 141.494 16.4181 141.54 19.8605V33.0039C141.494 36.4411 144.233 39.273 147.675 39.3346H161.004C164.441 39.273 167.185 36.4463 167.139 33.0039V19.8502C167.18 16.413 164.441 13.5914 161.004 13.5298ZM163.256 21.6201V31.3571C163.292 33.5836 161.522 35.4151 159.295 35.4562H149.43C147.203 35.4151 145.434 33.5785 145.469 31.3571V21.6201C145.434 19.3936 147.203 17.5621 149.43 17.5211H159.295C161.522 17.5621 163.292 19.3987 163.256 21.6201Z" fill="black"/>
<path d="M20.2473 13.5298H6.91916C6.17529 13.5349 5.44167 13.6837 4.75423 13.9607V0.653091H0.860438V33.0142C0.814267 36.4514 3.55377 39.2832 6.99611 39.3448H20.2473C23.6897 39.2832 26.4343 36.4462 26.383 33.0039V19.8502C26.424 16.413 23.6845 13.5914 20.2473 13.5298ZM22.4995 21.6201V31.3571C22.5354 33.5836 20.7655 35.4151 18.539 35.4561H8.65829C6.4318 35.4151 4.66189 33.5785 4.6978 31.3571V21.6201C4.6978 19.4192 6.45745 17.6185 8.65829 17.5724H18.5236C20.7347 17.6134 22.5046 19.4141 22.4995 21.6201Z" fill="black"/>
<path d="M104.823 13.6479H91.5358C90.792 13.653 90.0583 13.8018 89.3709 14.0788V0.786594H85.4771V39.3911H89.3709V39.0473C89.3709 37.4878 89.2939 21.8562 89.2939 21.7382C89.2939 19.5373 91.0536 17.7367 93.2544 17.6905H103.12C105.346 17.7315 107.116 19.5681 107.08 21.7895V39.427H111.01V20.0196C111.082 16.5721 108.347 13.7197 104.9 13.6479C104.874 13.6479 104.849 13.6479 104.823 13.6479Z" fill="black"/>
</svg>

<svg xmlns="http://www.w3.org/2000/svg" width="168" height="40" fill="none" viewBox="0 0 168 40"><path fill="#000" d="M48.55 13.53H35.275a6.247 6.247 0 0 0-6.136 6.33v13.144c-.056 3.442 2.693 6.28 6.136 6.34H48.55a6.25 6.25 0 0 0 6.135-6.34V19.85a6.245 6.245 0 0 0-6.135-6.32Zm2.253 8.09v9.737a4.032 4.032 0 0 1-3.96 4.1h-9.866a4.036 4.036 0 0 1-3.96-4.1V21.62a4.032 4.032 0 0 1 3.96-4.099h9.865a4.039 4.039 0 0 1 3.96 4.1ZM76.746 13.53H63.407a6.247 6.247 0 0 0-6.135 6.33v13.144c-.057 3.442 2.693 6.28 6.135 6.34h13.339a6.25 6.25 0 0 0 6.136-6.34V19.85a6.245 6.245 0 0 0-6.136-6.32Zm2.252 8.09v9.737a4.032 4.032 0 0 1-3.96 4.1h-9.866a4.04 4.04 0 0 1-3.93-4.1V21.62a4.032 4.032 0 0 1 3.961-4.099h9.865a4.04 4.04 0 0 1 3.93 4.1ZM132.854 13.53h-13.328a6.248 6.248 0 0 0-6.136 6.33v13.144a6.248 6.248 0 0 0 6.136 6.33h13.328a6.248 6.248 0 0 0 6.136-6.33V19.85a6.249 6.249 0 0 0-6.136-6.32Zm2.252 8.09v9.737a4.032 4.032 0 0 1-3.96 4.1h-9.865a4.036 4.036 0 0 1-3.961-4.1V21.62a4.032 4.032 0 0 1 3.961-4.099h9.865a4.039 4.039 0 0 1 3.96 4.1ZM161.004 13.53h-13.329a6.247 6.247 0 0 0-6.135 6.33v13.144a6.247 6.247 0 0 0 6.135 6.33h13.329a6.247 6.247 0 0 0 6.135-6.33V19.85a6.245 6.245 0 0 0-6.135-6.32Zm2.252 8.09v9.737a4.033 4.033 0 0 1-3.961 4.1h-9.865a4.036 4.036 0 0 1-3.961-4.1V21.62a4.033 4.033 0 0 1 3.961-4.099h9.865a4.036 4.036 0 0 1 3.961 4.1ZM20.247 13.53H6.92a5.901 5.901 0 0 0-2.165.43V.654H.86v32.361a6.247 6.247 0 0 0 6.136 6.33h13.251a6.25 6.25 0 0 0 6.136-6.34V19.85a6.245 6.245 0 0 0-6.136-6.32Zm2.253 8.09v9.737a4.032 4.032 0 0 1-3.961 4.1h-9.88a4.036 4.036 0 0 1-3.961-4.1V21.62c0-2.2 1.76-4.002 3.96-4.048h9.866A4.044 4.044 0 0 1 22.5 21.62ZM104.823 13.648H91.536a5.901 5.901 0 0 0-2.165.43V.788h-3.894V39.39h3.894v-.344c0-1.56-.077-17.19-.077-17.309 0-2.2 1.76-4.001 3.96-4.047h9.866a4.035 4.035 0 0 1 3.96 4.099v17.637h3.93V20.02a6.241 6.241 0 0 0-6.11-6.372h-.077Z"/></svg>
